svgs/light/font.svg

<svg xmlns="http://www.w3.org/2000/svg" viewBox="0 0 448 512"><!--! Font Awesome Pro 6.3.0 by @fontawesome - https://fontawesome.com License - https://fontawesome.com/license (Commercial License) Copyright 2023 Fonticons, Inc. --><path d="M432 448h-21.37L238.7 40.9c-5-11.87-24.47-11.87-29.47 0L37.37 448H16C7.164 448 0 455.2 0 464S7.164 480 16 480H96c8.838 0 16-7.164 16-16S104.8 448 96 448H72.12l40.64-96.25h222.5L375.9 448H352c-8.836 0-16 7.164-16 16S343.2 480 352 480h80c8.838 0 16-7.164 16-16S440.8 448 432 448zM126.3 319.7L224 88.29l97.71 231.4H126.3z"/></svg>

<svg xmlns="http://www.w3.org/2000/svg" viewBox="0 0 448 512"><!-- Font Awesome Pro 6.0.0-alpha2 by @fontawesome - https://fontawesome.com License - https://fontawesome.com/license (Commercial License) --><path d="M432 448H410.629L238.734 40.9C233.734 29.033 214.266 29.033 209.266 40.9L37.373 448H16C7.164 448 0 455.164 0 464S7.164 480 16 480H96C104.838 480 112 472.836 112 464S104.838 448 96 448H72.117L112.758 351.748H335.244L375.885 448H352C343.164 448 336 455.164 336 464S343.164 480 352 480H432C440.838 480 448 472.836 448 464S440.838 448 432 448ZM126.297 319.684L224 88.291L321.705 319.684H126.297Z"/></svg>
